assets/Japanese not free of charge button/Flat/japanese_not_free_of_charge_button_flat.svg

<svg width="32" height="32" viewBox="0 0 32 32" fill="none" xmlns="http://www.w3.org/2000/svg">
<path d="M2 6C2 3.79086 3.79086 2 6 2H26C28.2091 2 30 3.79086 30 6V26C30 28.2091 28.2091 30 26 30H6C3.79086 30 2 28.2091 2 26V6Z" fill="#FF822D"/>
<path d="M12 6C12 5.44772 12.4477 5 13 5C13.5523 5 14 5.44772 14 6V6.875C14 6.94404 14.056 7 14.125 7H25C25.5523 7 26 7.44772 26 8C26 8.55228 25.5523 9 25 9H13.6555C13.6035 9 13.557 9.03221 13.5383 9.08073C13.5261 9.11236 13.5148 9.14162 13.5044 9.16833C13.4789 9.23379 13.4594 9.28407 13.4486 9.31623C13.301 9.75913 13.0002 10.2815 12.6537 10.8035C12.5981 10.8872 12.6577 11 12.7582 11H23.0001C23.5523 11 24.0001 11.4477 24.0001 12V24C24.0001 25.1046 23.1046 26 22.0001 26H20.0001C19.4478 26 19.0001 25.5523 19.0001 25C19.0001 24.4477 19.4478 24 20.0001 24H21.7501C21.8881 24 22.0001 23.8881 22.0001 23.75V21.125C22.0001 21.056 21.9441 21 21.8751 21H13.1251C13.056 21 13.0001 21.056 13.0001 21.125V26C13.0001 26.5523 12.5524 27 12.0001 27C11.4478 27 11.0001 26.5523 11.0001 26V13.1692C11.0001 13.1156 10.9328 13.0917 10.899 13.1332V13.1332C9.75664 14.5295 8.48446 15.9298 7.70718 16.7071C7.52621 16.8881 7.27616 17 7 17C6.44772 17 6 16.5523 6 16C6 15.7202 6.1149 15.4673 6.30009 15.2858C7.02374 14.5613 8.24708 13.2161 9.35105 11.8668C9.90412 11.1908 10.4173 10.5259 10.8184 9.94643C11.0256 9.64716 11.1884 9.39103 11.3092 9.18102C11.3561 9.09953 11.2963 9 11.2022 9H7C6.44772 9 6 8.55228 6 8C6 7.44772 6.44772 7 7 7H11.875C11.944 7 12 6.94404 12 6.87501L12 6ZM22.0001 17.125C22.0001 17.056 21.9441 17 21.8751 17H13.1251C13.056 17 13.0001 17.056 13.0001 17.125V18.875C13.0001 18.944 13.056 19 13.1251 19H21.8751C21.9441 19 22.0001 18.944 22.0001 18.875V17.125ZM22.0001 13.125C22.0001 13.056 21.9441 13 21.8751 13H13.1251C13.056 13 13.0001 13.056 13.0001 13.125V14.875C13.0001 14.944 13.056 15 13.1251 15H21.8751C21.9441 15 22.0001 14.944 22.0001 14.875V13.125Z" fill="white"/>
</svg>

<svg xmlns="http://www.w3.org/2000/svg" width="32" height="32" fill="none"><path fill="#FF822D" d="M2 6a4 4 0 0 1 4-4h20a4 4 0 0 1 4 4v20a4 4 0 0 1-4 4H6a4 4 0 0 1-4-4V6Z"/><path fill="#fff" d="M12 6a1 1 0 1 1 2 0v.875c0 .069.056.125.125.125H25a1 1 0 1 1 0 2H13.655a.126.126 0 0 0-.117.08 30.277 30.277 0 0 1-.09.236c-.147.443-.448.965-.794 1.487a.126.126 0 0 0 .104.197H23a1 1 0 0 1 1 1v12a2 2 0 0 1-2 2h-2a1 1 0 1 1 0-2h1.75a.25.25 0 0 0 .25-.25v-2.625a.125.125 0 0 0-.125-.125h-8.75a.125.125 0 0 0-.125.125V26a1 1 0 1 1-2 0V13.17a.057.057 0 0 0-.101-.037c-1.142 1.397-2.415 2.797-3.192 3.574A1 1 0 1 1 6.3 15.286c.724-.725 1.947-2.07 3.051-3.42a31.255 31.255 0 0 0 1.467-1.92c.208-.299.37-.555.491-.765A.121.121 0 0 0 11.202 9H7a1 1 0 0 1 0-2h4.875A.125.125 0 0 0 12 6.875V6Zm10 11.125a.125.125 0 0 0-.125-.125h-8.75a.125.125 0 0 0-.125.125v1.75c0 .069.056.125.125.125h8.75a.125.125 0 0 0 .125-.125v-1.75Zm0-4a.125.125 0 0 0-.125-.125h-8.75a.125.125 0 0 0-.125.125v1.75c0 .069.056.125.125.125h8.75a.125.125 0 0 0 .125-.125v-1.75Z"/></svg>
